X:464
T: Fenstergang (175), S. 385
N: T0352
O: Luxemburg
S: Singendes Volk, Esch-Alzette, 1937 posth.]
N: Medernach, fff Leny Goeres, Savelborn, 7.2.1916
R: Tage-. Wchter-, Fenstergang-, Stndchenlieder, Liebeslied]
M: 6/8
L: 1/8
K: D
D | D2FA2F | F2EE2
G | G2AB2A | F2AA2
D | D2FA2F | F2EE2z
B2dA2F | G2AF2
D | D2FA2F | F2EE2z
B2dA2F | G2AF2

